src/assets/images/checkbox.svg

<svg width="18" height="18" viewBox="0 0 18 18" fill="none" xmlns="http://www.w3.org/2000/svg">
<path d="M8.75 0C3.91797 0 0 3.91797 0 8.75C0 13.582 3.91797 17.5 8.75 17.5C13.582 17.5 17.5 13.582 17.5 8.75C17.5 3.91797 13.582 0 8.75 0ZM12.5293 5.89258L8.41602 11.5957C8.35853 11.6759 8.28274 11.7413 8.19493 11.7864C8.10713 11.8315 8.00984 11.8551 7.91113 11.8551C7.81242 11.8551 7.71513 11.8315 7.62733 11.7864C7.53953 11.7413 7.46374 11.6759 7.40625 11.5957L4.9707 8.2207C4.89648 8.11719 4.9707 7.97266 5.09766 7.97266H6.01367C6.21289 7.97266 6.40234 8.06836 6.51953 8.23242L7.91016 10.1621L10.9805 5.9043C11.0977 5.74219 11.2852 5.64453 11.4863 5.64453H12.4023C12.5293 5.64453 12.6035 5.78906 12.5293 5.89258Z" fill="#52C41A"/>
</svg>

<svg width="18" height="18" fill="none" xmlns="http://www.w3.org/2000/svg"><path d="M8.75 0a8.75 8.75 0 1 0 .001 17.501A8.75 8.75 0 0 0 8.75 0Zm3.78 5.893-4.114 5.703a.621.621 0 0 1-1.01 0L4.971 8.22a.157.157 0 0 1 .127-.248h.916c.199 0 .388.095.506.26l1.39 1.93 3.07-4.259a.625.625 0 0 1 .506-.26h.916c.127 0 .202.145.127.249Z" fill="#52C41A"/></svg>
